icon-svg/dimmer-switch.svg

<svg xmlns="http://www.w3.org/2000/svg" fill="#44739e" viewBox="0 0 24 24"><path d="M20 27c0 .553-.447 1-1 1h-6c-.553 0-1-.447-1-1v-6h8zm-8-8v-2h8v2zm0-4v-2h8v2zm8-4h-8V5c0-.553.447-1 1-1h6c.553 0 1 .447 1 1zm1.994 17.494c0 .825-.675 1.5-1.5 1.5h-8.988c-.825 0-1.5-.675-1.5-1.5V3.506c0-.829.671-1.5 1.5-1.5h8.988c.829 0 1.5.671 1.5 1.5zM21.5 0h-11C9.125 0 8 1.125 8 2.5v27c0 1.381 1.119 2.5 2.5 2.5h11c1.381 0 2.5-1.119 2.5-2.5v-27C24 1.125 22.875 0 21.5 0"/></svg>

<?xml version="1.0" encoding="UTF-8"?>
<svg width="32px" height="32px" viewBox="0 0 32 32" fill="#44739e" version="1.1" xmlns="http://www.w3.org/2000/svg" xmlns:xlink="http://www.w3.org/1999/xlink">
            <path d="M20,27 C20,27.553 19.553,28 19,28 L13,28 C12.447,28 12,27.553 12,27 L12,21 L20,21 L20,27 Z M12,19 L12,17 L20,17 L20,19 L12,19 Z M12,15 L12,13 L20,13 L20,15 L12,15 Z M20,11 L12,11 L12,5 C12,4.447 12.447,4 13,4 L19,4 C19.553,4 20,4.447 20,5 L20,11 Z M21.994,28.494 C21.994,29.319 21.319,29.994 20.494,29.994 L16,29.994 L11.506,29.994 C10.681,29.994 10.006,29.319 10.006,28.494 L10.006,3.506 C10.006,2.677 10.677,2.006 11.506,2.006 L16,2.006 L20.494,2.006 C21.323,2.006 21.994,2.677 21.994,3.506 L21.994,28.494 Z M21.5,0 L16,0 L10.5,0 C9.125,0 8,1.125 8,2.5 L8,29.5 C8,30.881 9.119,32 10.5,32 L16,32 L21.5,32 C22.881,32 24,30.881 24,29.5 L24,2.5 C24,1.125 22.875,0 21.5,0 Z"></path>
</svg>
